X: 37827
T: Sonny's Delight
R: reel
M: 4/4
K: Cdorian
C2DB,C2DF|GFGAB4-|BcBA F2BA|FDB,C DCCB,|
C2DB,C2DF|GFGAB4-|BcBA F2BA|FDCDB,4|
E3D C2DB,|CDFGB4-|BcBA F2BA|FDB,C DCCB,|
C2DB,C2DF|GFGAB4-|BcBA F2BA|FDCDB,4||
|:Gccc B3c|dcBG cAGF|GccB c2Bc|dcBG c3e|
dGBG cAGA|BcBA FDB,C|DFFF GABG|FDCD B,4:|

